icons/black/wickr_me.svg

<?xml version="1.0" encoding="UTF-8"?><svg id="a" xmlns="http://www.w3.org/2000/svg" viewBox="0 0 48 48"><defs><style>.b{fill:none;stroke:#000;stroke-linecap:round;stroke-linejoin:round;}</style></defs><path class="b" d="M23.2121,13.5818c-.3205.641-1.0683,1.0683-1.816,1.0683h0c-1.1751,0-2.1366-.9615-2.1366-2.1366v-1.3888c0-1.1751.9615-2.1366,2.1366-2.1366h0c1.1751,0,2.1366.9615,2.1366,2.1366v.7478h-4.2731M13.0833,11.1678c0-1.1941.977-2.1711,2.1711-2.1711h0c1.1941,0,2.1711.977,2.1711,2.1711v3.4737M8.7413,8.9968v5.6447M8.7413,11.1678c0-1.1941.977-2.1711,2.1711-2.1711h0c1.1941,0,2.1711.977,2.1711,2.1711v3.4737M23.1499,37.2614l14.784-14.784M13.4359,37.2614l14.784-14.784M40.5003,5.5007H7.5003c-1.1046,0-2,.8954-2,2v33c0,1.1046.8954,2,2,2h33c1.1046,0,2-.8954,2-2V7.5007c0-1.1046-.8954-2-2-2Z"/></svg>

<svg xmlns="http://www.w3.org/2000/svg" viewBox="0 0 48 48"><defs><style>.a{fill:none;stroke:#000;stroke-linecap:round;stroke-linejoin:round;}</style></defs><path class="a" d="M23.2121,13.5818a2.0678,2.0678,0,0,1-1.816,1.0683h0a2.143,2.143,0,0,1-2.1367-2.1366V11.1247A2.143,2.143,0,0,1,21.3961,8.988h0a2.1429,2.1429,0,0,1,2.1366,2.1367v.7478H19.26m-6.1763-.7047a2.1775,2.1775,0,0,1,2.1711-2.1711h0a2.1776,2.1776,0,0,1,2.1711,2.1711v3.4737M8.7413,8.9968v5.6447m0-3.4737a2.1775,2.1775,0,0,1,2.1711-2.1711h0a2.1775,2.1775,0,0,1,2.171,2.1711v3.4737M23.15,37.2614l14.784-14.784m-24.498,14.784L28.22,22.4774M40.5,5.5007H7.5a2,2,0,0,0-2,2v33a2,2,0,0,0,2,2h33a2,2,0,0,0,2-2v-33A2,2,0,0,0,40.5,5.5007Z"/></svg>
